light/assets/img/about_me/logo/sql-database-sql-azure-svgrepo-com 1.svg

<svg width="800" height="800" viewBox="0 0 800 800" fill="none" xmlns="http://www.w3.org/2000/svg">
<rect width="800" height="800" fill="#1E1E1E"/>
<g style="mix-blend-mode:luminosity" clip-path="url(#clip0_154_2643)">
<path d="M353.748 798.589C316.919 791.263 285.123 766.077 269.665 731.983C262.865 716.985 259.971 702.816 260.021 684.747C260.158 632.818 292.812 589.456 343.54 573.824C352.885 570.945 359.052 570.184 373.38 570.146C383.314 570.123 394.268 570.645 397.724 571.315L404.006 572.532L411.738 557.518C427.526 526.862 452.132 502.778 483.941 486.847C510.182 473.704 526.673 469.882 557.133 469.882C578.468 469.882 583.418 470.396 597.182 474.043C656.624 489.793 702.954 536.443 717.536 595.226C721.187 609.945 723.009 642.948 720.884 655.895L719.434 664.735L727.758 666.598C748.622 671.267 766.628 685.844 775.834 705.516C784.938 724.971 783.271 750.144 771.661 768.535C765.735 777.922 754.118 788.355 744.425 792.996C739.456 795.374 734.163 797.964 732.662 798.751C729.294 800.518 362.661 800.362 353.748 798.589ZM734.902 776.888C745.218 771.759 755.42 760.292 759.659 749.06C768.456 725.758 756.721 698.684 733.31 688.268C727.398 685.637 722.982 685.029 710.654 685.145C702.232 685.225 695.341 684.693 695.341 683.964C695.341 683.235 696.906 676.4 698.818 668.773C703.709 649.263 703.66 618.153 698.704 599.153C687.782 557.258 659.467 522.312 620.737 502.934C603.717 494.418 587.53 490.523 565.411 489.62C532.681 488.284 509.83 493.442 484.65 507.849C455.286 524.649 429.976 555.093 420.164 585.41C418.277 591.241 415.989 596.003 415.08 595.992C414.165 595.981 408.832 594.459 403.217 592.611C387.596 587.469 360.956 587.782 345.366 593.29C329.674 598.834 318.377 605.941 306.614 617.666C288.984 635.242 279.19 659.196 279.19 684.747C279.19 722.691 300.091 755.954 334.094 772.127C353.637 781.422 346.875 781.143 545.35 780.834L727.533 780.551L734.902 776.888ZM209.259 703.451C143.349 694.519 92.6178 677.969 55.0921 653.159C39.6086 642.922 28.9184 631.471 22.891 618.669L18.4007 609.13L18.8121 350.891L19.2235 92.6534L22.9733 85.6176C32.4521 67.8326 50.9332 52.6567 80.3572 38.4989C117.562 20.5965 160.466 9.40436 220.252 2.00436C244.873 -1.04295 328.481 -0.504132 353.748 2.86478C446.794 15.27 518.998 45.6709 542.016 82.131C551.085 96.4986 550.851 91.2907 550.851 279.021V451.379L545.747 452.17C542.94 452.605 536.58 453.394 531.614 453.925C480.376 459.396 427.238 494.818 400.001 541.662L394.424 551.252L372.516 552.286C346.63 553.509 333.441 556.824 313.761 567.057C279.97 584.625 255.819 615.083 245.971 652.551C243.251 662.9 242.446 670.402 242.392 685.925L242.277 705.95L233.598 705.764C228.826 705.661 217.853 704.622 209.216 703.451H209.259ZM343.246 465.427C330.883 454.935 320.19 445.842 319.485 445.22C318.777 444.598 321.349 442.246 325.193 439.993C333.716 434.998 344.691 423.043 349.352 413.676C360.74 390.786 360.486 362.316 348.689 339.661C335.717 314.744 308.571 301.674 277.816 305.535C260.976 307.65 250.426 312.373 239.3 322.781C221.739 339.208 215.657 355.327 216.58 382.991C217.106 398.719 217.666 401.548 222.164 411.094C231.845 431.641 252.086 446.998 272.707 449.44C280.465 450.359 281.138 450.868 296.553 467.445L312.417 484.504H339.069H365.723L343.246 465.427ZM275.989 411.866C265.188 406.386 261.086 396.997 261.086 377.748C261.086 365.224 261.692 361.567 264.771 355.304C269.696 345.304 279.514 339.292 289.146 340.378C298.62 341.445 303.545 345.278 308.556 355.481C312.358 363.225 312.908 366.16 312.863 378.492C312.863 393.704 310.117 401.504 302.466 408.62C294.473 416.055 286.237 417.065 275.989 411.866ZM167.311 448.32C195.711 441.769 211.138 417.985 202.96 393.361C198.842 380.962 190.138 373.218 168.881 363.038C159.064 358.337 150.284 353.53 149.371 352.356C145.796 347.763 145.804 344.723 149.371 340.544C154.902 334.114 167.494 333.806 184.544 339.685L197.549 344.17L197.104 326.813L196.658 309.455L188.02 307.402C174.957 304.297 146.722 304.449 135.613 307.684C113.339 314.172 101.602 328.73 101.675 349.779C101.789 371.44 111.509 381.708 145.876 396.291C160.416 402.46 162.081 413.989 149.084 418.503C143.069 420.592 141.357 420.552 131.84 418.094C126.027 416.593 117.209 413.258 112.242 410.683L103.211 406V424.791V443.582L112.242 446.095C117.209 447.478 121.979 448.855 122.843 449.156C126.433 450.407 161.054 449.755 167.276 448.32H167.311ZM470.754 431.89V415.399H445.625H420.497V361.216V307.032H400.08H379.662V377.706V448.381H425.209H470.754V431.89ZM349.822 149.13C390.777 144.384 424.384 135.799 445.625 124.658C459.58 117.339 462.926 114.702 468.291 106.797C484.88 82.3518 447.734 57.773 375.736 45.5538C308.093 34.0738 218.952 36.6706 161.898 51.7832C44.1778 82.9661 90.5846 140.247 242.717 151.54C267.685 153.393 323.963 152.127 349.822 149.13Z" fill="#00BCF2"/>
</g>
<defs>
<clipPath id="clip0_154_2643">
<rect width="800" height="800" fill="white"/>
</clipPath>
</defs>
</svg>

<?xml version="1.0" encoding="UTF-8"?>
<svg id="Layer_1" data-name="Layer 1" xmlns="http://www.w3.org/2000/svg" xmlns:xlink="http://www.w3.org/1999/xlink" viewBox="0 0 800 800">
  <defs>
    <style>
      .cls-1 {
        fill: none;
      }

      .cls-1, .cls-2 {
        stroke-width: 0px;
      }

      .cls-3 {
        clip-path: url(#clippath);
      }

      .cls-2 {
        fill: #8a8a8a;
      }

      .cls-4 {
        opacity: .3;
      }
    </style>
    <clipPath id="clippath">
      <rect class="cls-1" width="800" height="800"/>
    </clipPath>
  </defs>
  <g class="cls-4">
    <g class="cls-3">
      <path class="cls-2" d="M353.75,798.59c-36.83-7.33-68.62-32.51-84.08-66.61-6.8-15-9.69-29.17-9.64-47.24.14-51.93,32.79-95.29,83.52-110.92,9.35-2.88,15.51-3.64,29.84-3.68,9.93-.02,20.89.5,24.34,1.17l6.28,1.22,7.73-15.01c15.79-30.66,40.39-54.74,72.2-70.67,26.24-13.14,42.73-16.96,73.19-16.96,21.34,0,26.29.51,40.05,4.16,59.44,15.75,105.77,62.4,120.35,121.18,3.65,14.72,5.47,47.72,3.35,60.67l-1.45,8.84,8.32,1.86c20.86,4.67,38.87,19.25,48.08,38.92,9.1,19.46,7.44,44.63-4.17,63.02-5.93,9.39-17.54,19.82-27.24,24.46-4.97,2.38-10.26,4.97-11.76,5.76-3.37,1.77-370,1.61-378.91-.16ZM734.9,776.89c10.32-5.13,20.52-16.6,24.76-27.83,8.8-23.3-2.94-50.38-26.35-60.79-5.91-2.63-10.33-3.24-22.66-3.12-8.42.08-15.31-.45-15.31-1.18s1.57-7.56,3.48-15.19c4.89-19.51,4.84-50.62-.11-69.62-10.92-41.9-39.24-76.84-77.97-96.22-17.02-8.52-33.21-12.41-55.33-13.31-32.73-1.34-55.58,3.82-80.76,18.23-29.36,16.8-54.67,47.24-64.49,77.56-1.89,5.83-4.17,10.59-5.08,10.58-.91-.01-6.25-1.53-11.86-3.38-15.62-5.14-42.26-4.83-57.85.68-15.69,5.54-26.99,12.65-38.75,24.38-17.63,17.58-27.42,41.53-27.42,67.08,0,37.94,20.9,71.21,54.9,87.38,19.54,9.29,12.78,9.02,211.26,8.71l182.18-.28,7.37-3.66ZM209.26,703.45c-65.91-8.93-116.64-25.48-154.17-50.29-15.48-10.24-26.17-21.69-32.2-34.49l-4.49-9.54.41-258.24.41-258.24,3.75-7.04c9.48-17.78,27.96-32.96,57.38-47.12C117.56,20.6,160.47,9.4,220.25,2c24.62-3.05,108.23-2.51,133.5.86,93.05,12.41,165.25,42.81,188.27,79.27,9.07,14.37,8.84,9.16,8.84,196.89v172.36l-5.1.79c-2.81.43-9.17,1.22-14.13,1.75-51.24,5.47-104.38,40.89-131.61,87.74l-5.58,9.59-21.91,1.03c-25.89,1.22-39.07,4.54-58.76,14.77-33.79,17.57-57.94,48.03-67.79,85.49-2.72,10.35-3.52,17.85-3.58,33.37l-.12,20.03-8.68-.19c-4.77-.1-15.75-1.14-24.38-2.31h.04ZM343.25,465.43c-12.36-10.49-23.06-19.58-23.76-20.21-.71-.62,1.86-2.97,5.71-5.23,8.52-5,19.5-16.95,24.16-26.32,11.39-22.89,11.13-51.36-.66-74.01-12.97-24.92-40.12-37.99-70.87-34.13-16.84,2.11-27.39,6.84-38.52,17.25-17.56,16.43-23.64,32.55-22.72,60.21.53,15.73,1.09,18.56,5.58,28.1,9.68,20.55,29.92,35.9,50.54,38.35,7.76.92,8.43,1.43,23.85,18.01l15.86,17.06h53.31l-22.48-19.08ZM275.99,411.87c-10.8-5.48-14.9-14.87-14.9-34.12,0-12.52.61-16.18,3.68-22.44,4.93-10,14.74-16.01,24.38-14.93,9.47,1.07,14.4,4.9,19.41,15.1,3.8,7.74,4.35,10.68,4.31,23.01,0,15.21-2.75,23.01-10.4,30.13-7.99,7.43-16.23,8.45-26.48,3.25ZM167.31,448.32c28.4-6.55,43.83-30.34,35.65-54.96-4.12-12.4-12.82-20.14-34.08-30.32-9.82-4.7-18.6-9.51-19.51-10.68-3.57-4.59-3.57-7.63,0-11.81,5.53-6.43,18.12-6.74,35.17-.86l13,4.49-.44-17.36-.45-17.36-8.64-2.05c-13.06-3.11-41.3-2.95-52.41.28-22.27,6.49-34.01,21.05-33.94,42.1.11,21.66,9.83,31.93,44.2,46.51,14.54,6.17,16.2,17.7,3.21,22.21-6.01,2.09-7.73,2.05-17.24-.41-5.81-1.5-14.63-4.84-19.6-7.41l-9.03-4.68v37.58l9.03,2.51c4.97,1.38,9.74,2.76,10.6,3.06,3.59,1.25,38.21.6,44.43-.84h.04ZM470.75,431.89v-16.49h-50.26v-108.37h-40.84v141.35h91.09v-16.49ZM349.82,149.13c40.96-4.75,74.56-13.33,95.8-24.47,13.95-7.32,17.3-9.96,22.67-17.86,16.59-24.45-20.56-49.02-92.55-61.24-67.64-11.48-156.78-8.88-213.84,6.23-117.72,31.18-71.31,88.46,80.82,99.76,24.97,1.85,81.25.59,107.1-2.41Z"/>
    </g>
  </g>
</svg>
